svg/camera_timer.svg

<svg xmlns="http://www.w3.org/2000/svg" viewBox="0 0 24 24"><path d="M4.94 6.35c-.39-.39-.39-1.03 0-1.42a.996.996 0 0 1 1.41 0l6.72 5.38.35.28c.78.78.78 2.05 0 2.83s-2.05.78-2.83 0l-.28-.35zM12 20a8 8 0 0 0 8-8c0-2.21-.9-4.21-2.34-5.66l1.41-1.41A9.97 9.97 0 0 1 22 12a10 10 0 0 1-10 10A10 10 0 0 1 2 12h2a8 8 0 0 0 8 8m0-19a2 2 0 0 1 2 2 2 2 0 0 1-2 2 2 2 0 0 1-2-2 2 2 0 0 1 2-2"/></svg>

<?xml version="1.0" encoding="UTF-8"?><!DOCTYPE svg PUBLIC "-//W3C//DTD SVG 1.1//EN" "http://www.w3.org/Graphics/SVG/1.1/DTD/svg11.dtd"><svg xmlns="http://www.w3.org/2000/svg" xmlns:xlink="http://www.w3.org/1999/xlink" version="1.1" id="mdi-camera-timer" width="24" height="24" viewBox="0 0 24 24"><path d="M4.94,6.35C4.55,5.96 4.55,5.32 4.94,4.93C5.33,4.54 5.96,4.54 6.35,4.93L13.07,10.31L13.42,10.59C14.2,11.37 14.2,12.64 13.42,13.42C12.64,14.2 11.37,14.2 10.59,13.42L10.31,13.07L4.94,6.35M12,20A8,8 0 0,0 20,12C20,9.79 19.1,7.79 17.66,6.34L19.07,4.93C20.88,6.74 22,9.24 22,12A10,10 0 0,1 12,22A10,10 0 0,1 2,12H4A8,8 0 0,0 12,20M12,1A2,2 0 0,1 14,3A2,2 0 0,1 12,5A2,2 0 0,1 10,3A2,2 0 0,1 12,1Z" /></svg>
